X: 183
T: Indian squaw (Woodswoman)
B: canberra pickers and fiddlers
B: old time tunes update
B: tunes
M:C|
L:1/8
Q: 1/4=100
K:G
V:1 
{B}d2[dd][de] [dd][de][d=f][dd]| (e=f)dBc2 d2|Bdde dBGB|AG2A (BA)Bc|
[d3d3]e [d3=f3](d|e2)d/B/ c3A|BGAF GABG|D2E>F G2BA|
{B}d2de de=fd|(e=f)dB c2c2|Bdde dBGB|AGEF G2BA|
(Bd)de de=fd|e=fdB c2dc|BGAF GABG|D2 EF G2||
c2|BGAF G2c2|BGAB E2c2|BGAF GABG|AG2A G2c2|
BGAF GBdc|BGAB E2cA|BGAF GABG|DG(EF) G2cA|
BGAF GABG|ABAA E2c2|BGAc GABG|D2 Bc d2c2|
BGAF GABG|D2BA GABc||
d3e[d3=f3](d|e3)d c4|Bdde dBGB|AG3 GABc|
[d4d4]de=fd|e=fed c2dc|BGAF GABG|DGEF G2||
% abcbook-tune_id 67a7d9ec9c60e2f701e40925
% abcbook-tune_composer_id 
% abcbook-link-0 https://www.youtube.com/watch?v=agAwEGs0zrQ
% abcbook-link-title-0 Indian Squaw
% abcbook-boost 0
% abcbook-difficulty 0
% abcbook-tags old time tunes
% abcbook-tablature 
% abcbook-transpose 
% abcbook-tuning GDAD
% abcbook-lastupdated 1739066580096
% abcbook-src-url 
% abcbook-soundfonts 
% abcbook-repeats 1


